tools/download-figma-icons/icons/outlined-large/connector-tesla.svg

<svg width="65" height="64" viewBox="0 0 65 64" fill="none" xmlns="http://www.w3.org/2000/svg">
<path fill-rule="evenodd" clip-rule="evenodd" d="M64 19C64 11.28 57.72 5 50 5C49.83 5 49.67 5 49.5 5.01L14.5 5H14C6.28 5 0 11.28 0 19C0 19.17 0 19.33 0.01 19.5H0V25.64C0 26.21 0.0500002 38.9 7.86 48.53L7.84 48.56L8.73 49.56L8.83 49.66L9.25 50.11C9.28999 50.15 9.32748 50.1925 9.36498 50.235L9.365 50.235L9.36502 50.235C9.40252 50.2775 9.44001 50.32 9.48 50.36C9.53 50.41 9.58 50.46 9.62 50.51C9.645 50.535 9.67 50.5625 9.695 50.59C9.72 50.6175 9.745 50.645 9.77 50.67L9.82 50.72L9.85 50.75C10.51 51.42 11.21 52.04 11.93 52.63L11.93 52.63L11.9301 52.6301C12.1101 52.77 12.29 52.91 12.47 53.04C12.6 53.15 12.73 53.25 12.87 53.35C13 53.45 13.14 53.55 13.27 53.64L13.57 53.85C13.7033 53.9433 13.8367 54.0278 13.97 54.1122L13.9701 54.1123C14.0367 54.1545 14.1034 54.1967 14.17 54.24C14.195 54.26 14.2225 54.2775 14.25 54.295L14.2501 54.295C14.2776 54.3125 14.305 54.33 14.33 54.35L14.33 54.35C14.4 54.4 14.47 54.45 14.55 54.49C14.61 54.54 14.67 54.57 14.73 54.6C14.9173 54.7248 15.1106 54.8314 15.3053 54.9387C15.3429 54.9594 15.3805 54.9802 15.4181 55.0011C15.4354 55.0107 15.4527 55.0203 15.47 55.03L15.53 55.06C15.5646 55.0792 15.5992 55.0999 15.6344 55.121L15.6345 55.121L15.6345 55.1211C15.6908 55.1547 15.7485 55.1893 15.81 55.22C15.99 55.32 16.17 55.42 16.36 55.51C16.4441 55.5581 16.5318 55.6025 16.621 55.6477L16.6211 55.6478L16.6213 55.6478C16.6804 55.6778 16.7402 55.7081 16.8 55.74C16.8541 55.7709 16.9142 55.7959 16.9711 55.8195C16.9877 55.8264 17.0041 55.8332 17.02 55.84C17.29 55.98 17.56 56.11 17.84 56.22C17.92 56.26 17.99 56.29 18.07 56.32C18.08 56.325 18.0925 56.33 18.105 56.335C18.1175 56.34 18.13 56.345 18.14 56.35L18.1401 56.35C18.2 56.38 18.26 56.41 18.32 56.43C18.63 56.56 18.95 56.69 19.27 56.81C19.29 56.81 19.31 56.81 19.33 56.83C19.34 56.83 19.35 56.83 19.36 56.84C19.4139 56.8592 19.4693 56.88 19.5255 56.901C19.6155 56.9347 19.7077 56.9692 19.8 57C20.06 57.1 20.33 57.2 20.6 57.28C20.61 57.28 20.63 57.28 20.64 57.29L21.42 57.53C21.45 57.54 21.48 57.55 21.52 57.56C21.71 57.62 21.9 57.67 22.09 57.72C22.51 57.84 22.94 57.94 23.38 58.04C23.4582 58.0556 23.5365 58.0774 23.6195 58.1005L23.69 58.12C23.71 58.12 23.73 58.12 23.75 58.13C23.8898 58.16 24.0296 58.1874 24.1694 58.2149L24.17 58.215L24.1706 58.2151C24.3104 58.2426 24.4502 58.27 24.59 58.3C24.6286 58.3 24.6631 58.3083 24.6987 58.3169C24.7185 58.3216 24.7386 58.3264 24.76 58.33C24.86 58.36 24.95 58.38 25.05 58.39C25.065 58.395 25.08 58.3975 25.095 58.4C25.11 58.4025 25.125 58.405 25.14 58.41C25.22 58.425 25.3025 58.4375 25.385 58.45C25.4675 58.4625 25.55 58.475 25.63 58.49C25.71 58.5019 25.7909 58.5146 25.8724 58.5274L25.8725 58.5274C26.066 58.5579 26.263 58.5889 26.46 58.61C26.495 58.615 26.5325 58.62 26.57 58.625C26.5868 58.6272 26.6035 58.6295 26.62 58.6317C26.6405 58.6345 26.6606 58.6372 26.68 58.64C26.715 58.645 26.7525 58.65 26.79 58.655L26.7901 58.655C26.8276 58.66 26.865 58.665 26.9 58.67C26.9427 58.67 26.9854 58.6773 27.0343 58.6856L27.0343 58.6856L27.06 58.69C27.1165 58.6947 27.1731 58.7016 27.2307 58.7087L27.2308 58.7087C27.2954 58.7166 27.3613 58.7247 27.43 58.73C27.555 58.745 27.6825 58.7575 27.81 58.77C27.9375 58.7825 28.065 58.795 28.19 58.81C28.2263 58.81 28.2626 58.8127 28.2975 58.8153L28.2976 58.8153H28.2977C28.33 58.8177 28.3612 58.82 28.39 58.82C28.4661 58.8248 28.5445 58.8318 28.6241 58.8389L28.6245 58.8389L28.6246 58.839C28.7121 58.8468 28.8011 58.8548 28.89 58.86H28.94C29.28 58.89 29.63 58.91 29.98 58.92H30.17C30.31 58.92 30.45 58.92 30.59 58.93H30.7L30.7005 58.93C31.1403 58.94 31.5802 58.95 32.02 58.95C32.4598 58.95 32.8997 58.94 33.3395 58.93L33.34 58.93H33.45C33.59 58.93 33.73 58.93 33.87 58.92H34.06C34.41 58.91 34.76 58.89 35.1 58.86H35.15C35.235 58.855 35.3175 58.8475 35.4 58.84C35.4825 58.8325 35.565 58.825 35.65 58.82C35.72 58.82 35.78 58.82 35.85 58.81C35.975 58.795 36.1025 58.7825 36.2299 58.77H36.23C36.3575 58.7575 36.485 58.745 36.61 58.73C36.6788 58.7247 36.7447 58.7166 36.8093 58.7087C36.8669 58.7016 36.9235 58.6947 36.98 58.69C37.0227 58.69 37.0653 58.6827 37.1142 58.6744L37.1143 58.6744L37.14 58.67C37.1882 58.67 37.2412 58.6605 37.2924 58.6513L37.2924 58.6513C37.3155 58.6472 37.3382 58.6431 37.36 58.64C37.3949 58.635 37.4324 58.63 37.4698 58.625L37.47 58.625L37.4702 58.625C37.5076 58.62 37.5451 58.615 37.58 58.61C37.777 58.5889 37.974 58.5579 38.1675 58.5274H38.1676C38.2491 58.5146 38.33 58.5019 38.41 58.49C38.49 58.475 38.5725 58.4625 38.655 58.45C38.7375 58.4375 38.82 58.425 38.9 58.41C38.915 58.405 38.93 58.4025 38.945 58.4C38.96 58.3975 38.975 58.395 38.99 58.39C39.09 58.38 39.18 58.36 39.28 58.33C39.3186 58.33 39.3531 58.3217 39.3887 58.3131C39.4019 58.31 39.4152 58.3068 39.429 58.3039C39.4359 58.3025 39.4429 58.3012 39.45 58.3C39.73 58.25 40.01 58.19 40.29 58.13C40.31 58.13 40.33 58.13 40.35 58.12C40.4282 58.1044 40.5065 58.0826 40.5895 58.0595L40.66 58.04C41.09 57.94 41.52 57.83 41.95 57.72L41.9501 57.72C42.14 57.67 42.33 57.62 42.52 57.56C42.535 57.555 42.5525 57.55 42.57 57.545L42.5737 57.5439C42.5791 57.5424 42.5845 57.5409 42.5898 57.5393C42.6004 57.5362 42.6107 57.5331 42.62 57.53L43.4 57.29C43.41 57.29 43.43 57.29 43.44 57.28C43.71 57.2 43.98 57.1 44.24 57C44.39 56.95 44.53 56.9 44.68 56.84C44.69 56.84 44.7 56.84 44.71 56.83C44.72 56.825 44.73 56.8225 44.74 56.82C44.75 56.8175 44.76 56.815 44.77 56.81C45.09 56.69 45.41 56.56 45.72 56.43C45.75 56.42 45.78 56.405 45.81 56.39L45.81 56.39C45.84 56.375 45.87 56.36 45.9 56.35C45.9153 56.35 45.9364 56.3383 45.9544 56.3284C45.9578 56.3265 45.9611 56.3246 45.9643 56.323C45.9663 56.3219 45.9682 56.3209 45.97 56.32C46.05 56.29 46.12 56.26 46.2 56.21C46.48 56.1 46.75 55.97 47.02 55.83C47.0288 55.8262 47.0378 55.8224 47.0469 55.8186C47.0542 55.8156 47.0615 55.8125 47.0689 55.8095L47.069 55.8095C47.1258 55.7859 47.1859 55.7609 47.24 55.73C47.2998 55.6981 47.3595 55.6679 47.4186 55.6379L47.4189 55.6378C47.5081 55.5926 47.5959 55.5481 47.68 55.5C47.8699 55.41 48.0498 55.3101 48.2297 55.2101L48.2299 55.2101L48.23 55.21C48.2646 55.1908 48.2993 55.17 48.3345 55.149C48.3908 55.1153 48.4485 55.0808 48.51 55.05L48.57 55.02C48.82 54.88 49.07 54.74 49.31 54.59C49.37 54.56 49.43 54.53 49.49 54.48C49.5198 54.463 49.5497 54.4423 49.5803 54.4211C49.6215 54.3925 49.6641 54.363 49.71 54.34C49.7253 54.3298 49.74 54.3202 49.7542 54.311L49.7547 54.3107C49.7958 54.2838 49.8329 54.2597 49.87 54.23C49.9367 54.1867 50.0034 54.1444 50.07 54.1022C50.2034 54.0178 50.3367 53.9333 50.47 53.84L50.77 53.63C50.9 53.54 51.04 53.44 51.17 53.34C51.31 53.24 51.44 53.14 51.57 53.03C51.75 52.9 51.93 52.76 52.11 52.62C52.83 52.03 53.53 51.41 54.19 50.74L54.22 50.71L54.27 50.66C54.32 50.61 54.37 50.56 54.42 50.5L54.57 50.35C54.65 50.27 54.73 50.18 54.8 50.1L55.22 49.65C55.2403 49.6229 55.2653 49.6003 55.2886 49.5793C55.2997 49.5693 55.3103 49.5597 55.32 49.55L56.21 48.55L56.19 48.52C64 38.89 64.05 26.21 64.05 25.64V19.49H64.04C64.05 19.32 64.05 19.16 64.05 18.99L64 19ZM50 8C56.07 8 61 12.93 61 19C61 25.07 56.07 30 50 30C43.93 30 39 25.07 39 19C39 12.93 43.93 8 50 8ZM41.35 8C38.1 10.56 36 14.54 36 19C36 26.72 42.28 33 50 33C54.39 33 58.31 30.97 60.87 27.81C60.52 31.62 59.17 39.78 54.07 46.3C48.6 40.86 41.18 38.12 32 38.12C22.82 38.12 15.4 40.86 9.93 46.3C4.83 39.78 3.48 31.62 3.13 27.81C5.69 30.97 9.62 33 14 33C21.72 33 28 26.72 28 19C28 14.54 25.9 10.56 22.65 8H41.35ZM44.5 51.5C42.84 51.5 41.5 50.16 41.5 48.5C41.5 46.84 42.84 45.5 44.5 45.5C46.16 45.5 47.5 46.84 47.5 48.5C47.5 50.16 46.16 51.5 44.5 51.5ZM32 53.56C29.24 53.56 27 51.32 27 48.56C27 45.8 29.24 43.56 32 43.56C34.76 43.56 37 45.8 37 48.56C37 51.32 34.76 53.56 32 53.56ZM16.5 48.5C16.5 46.84 17.84 45.5 19.5 45.5C21.16 45.5 22.5 46.84 22.5 48.5C22.5 50.16 21.16 51.5 19.5 51.5C17.84 51.5 16.5 50.16 16.5 48.5ZM14 8C20.07 8 25 12.93 25 19C25 25.07 20.07 30 14 30C7.93 30 3 25.07 3 19C3 12.93 7.93 8 14 8ZM14 23C16.2091 23 18 21.2091 18 19C18 16.7909 16.2091 15 14 15C11.7909 15 10 16.7909 10 19C10 21.2091 11.7909 23 14 23ZM54 19C54 21.2091 52.2091 23 50 23C47.7909 23 46 21.2091 46 19C46 16.7909 47.7909 15 50 15C52.2091 15 54 16.7909 54 19Z" fill="black"/>
</svg>

<svg xmlns="http://www.w3.org/2000/svg" width="65" height="64" fill="none" viewBox="0 0 65 64"><path fill="currentColor" fill-rule="evenodd" d="M64 19c0-7.72-6.28-14-14-14-.17 0-.33 0-.5.01L14.5 5H14C6.28 5 0 11.28 0 19c0 .17 0 .33.01.5H0v6.14c0 .57.05 13.26 7.86 22.89l-.02.03.89 1 .1.1.42.45q.059.061.115.125.056.065.115.125c.05.05.1.1.14.15q.037.038.075.08l.075.08.05.05.03.03c.66.67 1.36 1.29 2.08 1.88.18.14.36.28.54.41.13.11.26.21.4.31.13.1.27.2.4.29l.3.21q.2.138.4.262l.2.128q.039.03.08.055a1 1 0 0 1 .08.055c.07.05.14.1.22.14.06.05.12.08.18.11.187.125.38.231.575.339l.113.062.052.029.06.03.104.061q.084.052.176.099c.18.1.36.2.55.29q.127.071.261.138.09.045.179.092c.054.03.114.056.171.08l.049.02c.27.14.54.27.82.38.08.04.15.07.23.1l.035.015.035.015c.06.03.12.06.18.08.31.13.63.26.95.38.02 0 .04 0 .06.02.01 0 .02 0 .03.01l.166.061q.136.052.274.099c.26.1.53.2.8.28.01 0 .03 0 .04.01l.78.24c.03.01.06.02.1.03.19.06.38.11.57.16.42.12.85.22 1.29.32q.116.025.24.06l.07.02c.02 0 .04 0 .06.01q.21.044.42.085t.42.085q.057.002.109.017.03.008.061.013c.1.03.19.05.29.06l.045.01q.023.004.045.01.12.022.245.04.124.018.245.04l.242.037c.194.03.391.062.588.083l.11.015.05.007.06.008.11.015.11.015q.063.001.134.016l.026.004q.084.008.17.019.097.013.2.021.188.022.38.04t.38.04q.055.001.107.005.05.005.093.005.114.008.234.019.132.013.266.021h.05c.34.03.69.05 1.04.06h.19c.14 0 .28 0 .42.01h.11c.44.01.88.02 1.32.02s.88-.01 1.32-.02h.11c.14 0 .28 0 .42-.01h.19c.35-.01.7-.03 1.04-.06h.05q.127-.008.25-.02t.25-.02c.07 0 .13 0 .2-.01q.188-.022.38-.04t.38-.04q.103-.008.2-.021.085-.011.17-.019a1 1 0 0 0 .134-.016l.026-.004c.048 0 .101-.01.152-.019l.068-.011.11-.015.11-.015a11 11 0 0 0 .587-.083l.243-.037q.121-.022.245-.04t.245-.04q.023-.007.045-.01.023-.003.045-.01c.1-.01.19-.03.29-.06a.5.5 0 0 0 .109-.017l.04-.01.021-.003c.28-.05.56-.11.84-.17.02 0 .04 0 .06-.01q.116-.025.24-.06l.07-.02c.43-.1.86-.21 1.29-.32.19-.05.38-.1.57-.16l.05-.015.004-.001.016-.005.03-.009.78-.24c.01 0 .03 0 .04-.01.27-.08.54-.18.8-.28.15-.05.29-.1.44-.16.01 0 .02 0 .03-.01l.03-.01.03-.01c.32-.12.64-.25.95-.38q.045-.016.09-.04t.09-.04c.015 0 .036-.012.054-.022l.01-.005.006-.003c.08-.03.15-.06.23-.11.28-.11.55-.24.82-.38l.027-.011.022-.01a2 2 0 0 0 .171-.079l.179-.092q.135-.067.261-.138c.19-.09.37-.19.55-.29l.105-.061q.084-.052.175-.099l.06-.03c.25-.14.5-.28.74-.43.06-.03.12-.06.18-.11q.045-.026.09-.059.061-.045.13-.081l.044-.029c.042-.027.079-.051.116-.081l.2-.128q.2-.124.4-.262l.3-.21c.13-.09.27-.19.4-.29.14-.1.27-.2.4-.31.18-.13.36-.27.54-.41.72-.59 1.42-1.21 2.08-1.88l.03-.03.05-.05c.05-.05.1-.1.15-.16l.15-.15c.08-.08.16-.17.23-.25l.42-.45a.5.5 0 0 1 .069-.07l.031-.03.89-1-.02-.03c7.81-9.63 7.86-22.31 7.86-22.88v-6.15h-.01c.01-.17.01-.33.01-.5zM50 8c6.07 0 11 4.93 11 11s-4.93 11-11 11-11-4.93-11-11S43.93 8 50 8m-8.65 0C38.1 10.56 36 14.54 36 19c0 7.72 6.28 14 14 14 4.39 0 8.31-2.03 10.87-5.19-.35 3.81-1.7 11.97-6.8 18.49-5.47-5.44-12.89-8.18-22.07-8.18S15.4 40.86 9.93 46.3c-5.1-6.52-6.45-14.68-6.8-18.49A13.98 13.98 0 0 0 14 33c7.72 0 14-6.28 14-14 0-4.46-2.1-8.44-5.35-11zm3.15 43.5c-1.66 0-3-1.34-3-3s1.34-3 3-3 3 1.34 3 3-1.34 3-3 3M32 53.56c-2.76 0-5-2.24-5-5s2.24-5 5-5 5 2.24 5 5-2.24 5-5 5M16.5 48.5c0-1.66 1.34-3 3-3s3 1.34 3 3-1.34 3-3 3-3-1.34-3-3M14 8c6.07 0 11 4.93 11 11s-4.93 11-11 11S3 25.07 3 19 7.93 8 14 8m0 15a4 4 0 1 0 0-8 4 4 0 0 0 0 8m40-4a4 4 0 1 1-8 0 4 4 0 0 1 8 0" clip-rule="evenodd"/></svg>
